plugins/woocommerce/packages/woocommerce-admin/images/empty-content.svg

<svg xmlns="http://www.w3.org/2000/svg" viewBox="0 0 400 400"> <path d="M226.153073,88.3099993 L355.380187,301.446227 C363.970299,315.614028 359.448689,334.062961 345.280888,342.653073 C340.591108,345.496544 335.21158,347 329.727115,347 L71.2728854,347 C54.7043429,347 41.2728854,333.568542 41.2728854,317 C41.2728854,311.515534 42.7763415,306.136007 45.6198127,301.446227 L174.846927,88.3099993 C183.437039,74.1421985 201.885972,69.6205881 216.053773,78.2106999 C220.184157,80.7150022 223.64877,84.1796157 226.153073,88.3099993 Z M184.370159,153 L186.899684,255.024156 L213.459691,255.024156 L215.989216,153 L184.370159,153 Z M200.179688,307.722584 C209.770801,307.722584 217.359375,300.450201 217.359375,291.175278 C217.359375,281.900355 209.770801,274.627972 200.179688,274.627972 C190.588574,274.627972 183,281.900355 183,291.175278 C183,300.450201 190.588574,307.722584 200.179688,307.722584 Z" id="Combined-Shape" stroke="#979797" fill="#95588A" fill-rule="nonzero"></path></svg>

<svg xmlns="http://www.w3.org/2000/svg" viewBox="0 0 400 400"><path d="M226.153 88.31 355.38 301.446c8.59 14.168 4.069 32.617-10.1 41.207A30 30 0 0 1 329.728 347H71.273c-16.569 0-30-13.431-30-30a30 30 0 0 1 4.347-15.554L174.847 88.31c8.59-14.168 27.039-18.69 41.207-10.1a30 30 0 0 1 10.1 10.1zM184.37 153l2.53 102.024h26.56L215.99 153h-31.62zm15.81 154.723c9.59 0 17.18-7.273 17.18-16.548 0-9.275-7.59-16.547-17.18-16.547-9.591 0-17.18 7.272-17.18 16.547s7.589 16.548 17.18 16.548z" stroke="#979797" fill="#95588A"/></svg>
